ion/fast-food-sharp.svg

<svg viewBox="0 0 512 512" xmlns="http://www.w3.org/2000/svg"><g><path d="M384 352H184.36l-41 35 -41-35H16v24c0 30.59 21.13 55.51 47.26 56 2.43 15.12 8.31 28.78 17.16 39.47C93.51 487.28 112.54 496 134 496h132c21.46 0 40.49-8.72 53.58-24.55 8.85-10.69 14.73-24.35 17.16-39.47 13.88-.25 26.35-7.4 35-18.63v0c8.07-10.77 12.38-23.9 12.26-37.35Z"/><path d="M105 320v0l38.33 28.19L182 320h202v-8 0c-.03-19.01-13.39-35.38-32-39.2 -.82-29.69-13-54.54-35.51-72C295.67 184.56 267.85 176 236 176h-72c-68.22 0-114.43 38.77-116 96.8h-.001c-18.62 3.82-31.98 20.19-32 39.2v8h89Z"/><path d="M463.08 96h-74.59l8.92-35.66L442 45l-10-29 -62 20 -14.49 60H208v32h18.75l1.86 16H236c39 0 73.66 10.9 100.12 31.52v0c14.71 11.33 26.64 25.89 34.88 42.55v0c5.07 10.33 8.68 21.32 10.73 32.65v-.001c30.82 18.97 42.76 57.89 27.89 90.9v0c4.21 10.97 6.37 22.62 6.38 34.38 0 22.34-7.6 43.63-21.4 59.95h0c-8.55 10.17-19.48 18.06-31.83 22.95h-.001c-4.21 11.99-10.48 23.16-18.53 33 -1.18 1.42-2.39 2.81-3.63 4.15h75.39c16 0 23-8 25-23l36.4-345h18.6V95.99Z"/></g></svg>

<svg xmlns="http://www.w3.org/2000/svg" width="512" height="512" viewBox="0 0 512 512"><path d="M384,352H184.36l-41,35-41-35H16v24c0,30.59,21.13,55.51,47.26,56,2.43,15.12,8.31,28.78,17.16,39.47C93.51,487.28,112.54,496,134,496H266c21.46,0,40.49-8.72,53.58-24.55,8.85-10.69,14.73-24.35,17.16-39.47,13.88-.25,26.35-7.4,35-18.63A61.26,61.26,0,0,0,384,376Z"/><path d="M105,320h0l38.33,28.19L182,320H384v-8a40.07,40.07,0,0,0-32-39.2c-.82-29.69-13-54.54-35.51-72C295.67,184.56,267.85,176,236,176H164c-68.22,0-114.43,38.77-116,96.8A40.07,40.07,0,0,0,16,312v8h89Z"/><path d="M463.08,96H388.49l8.92-35.66L442,45,432,16,370,36,355.51,96H208v32h18.75l1.86,16H236c39,0,73.66,10.9,100.12,31.52A121.9,121.9,0,0,1,371,218.07a124.16,124.16,0,0,1,10.73,32.65,72,72,0,0,1,27.89,90.9A96,96,0,0,1,416,376c0,22.34-7.6,43.63-21.4,59.95a80,80,0,0,1-31.83,22.95,109.21,109.21,0,0,1-18.53,33c-1.18,1.42-2.39,2.81-3.63,4.15H416c16,0,23-8,25-23l36.4-345H496V96Z"/></svg>
